Yaru++/emotes/16/drink-beer.svg

<svg height="16" viewBox="0 0 4.2333332 4.2333335" width="16" xmlns="http://www.w3.org/2000/svg"><g transform="translate(0 -292.76666)"><path d="m.23518519 292.76665c-.13029935 0-.23518519.10489-.23518519.23519v3.76296c0 .1303.10488584.23519.23518519.23519h3.05740741c.1302994 0 .2351852-.10489.2351852-.23519v-1.17592h.4703703c.1302992 0 .2351852-.10489.2351852-.23519v-1.88148c0-.1303-.104886-.23519-.2351852-.23519h-.4703703v-.23518c0-.1303-.1048858-.23519-.2351852-.23519zm3.29259261.70556h.2351852c.1302991 0 .2351851.10489.2351851.23518v1.41112c0 .13029-.104886.23518-.2351851.23518h-.2351852z" fill="#9c2c07" stroke-width=".235185"/><rect fill="#eab305" height="3.762964" rx=".235197" stroke-width=".888889" width="3.057407" x=".235185" y="293.00183"/><path d="m.47037037 293.00184c-.13029911 0-.23518518.10488-.23518518.23518v.47037h1.64629631v.1176c0 .0651.052446.11759.1175926.11759.065146 0 .1175926-.0524.1175926-.11759v.23518c0 .0652.052446.11759.1175925.11759.065146 0 .1175926-.0524.1175926-.11759v-.35278c0 .1303.1048926.23519.2351852.23519s.2351852-.10489.2351852-.23519h.4703704v-.47037c0-.1303-.104886-.23518-.2351852-.23518h-.4703704-.5879629z" fill="#fff" fill-opacity=".784314" stroke-width=".235185"/><path d="m.47037037 293.70739v3.05741h.70555553v-3.05741z" fill="#fdc92b" stroke-width=".235185"/><rect fill="#422016" height="1.881482" rx=".117593" stroke-width=".888889" width=".235185" x="1.175926" y="294.1778"/><rect fill="#422016" height="1.881482" rx=".117593" stroke-width=".888889" width=".235185" x="2.116667" y="294.1778"/><path d="m.47037037 293.00184c-.13029911 0-.23518518.10488-.23518518.23518h3.05740741c0-.1303-.104886-.23518-.2351852-.23518z" fill="#fff" fill-opacity=".784314" stroke-width=".235185"/><g stroke-width=".888889" transform="matrix(.26458333 0 0 .26458333 0 292.76666)"><path d="m.88867188 0c-.49246999 0-.88867188.39619944-.88867188.88867188v.50000002c0-.49247246.39620189-.8886719.88867188-.8886719h11.55664012c.492471 0 .888672.39619944.888672.8886719v-.50000002c0-.49247244-.396201-.88867188-.888672-.88867188zm12.44531212 1.7773438v.5h1.777344c.49247 0 .888672.3961994.888672.8886718v-.5c0-.4924724-.396202-.8886718-.888672-.8886718zm1.777344 7.1113281c0 .4924346-.396203.8886719-.888672.8886719h-.888672v.5000002h.888672c.492469 0 .888672-.3962375.888672-.8886721z" fill="#fff" opacity=".3"/><path d="m13.333984 2.1660156v.5h.888672c.492469 0 .888672.3962373.888672.8886719v-.5c0-.4924346-.396203-.8886719-.888672-.8886719zm2.666016 7.1113282c0 .4924724-.396202.8886722-.888672.8886722h-1.777344v.5h1.777344c.49247 0 .888672-.3962.888672-.8886722zm-16 5.3339842v.5c0 .492473.39620189.888672.88867188.888672h11.55664012c.492471 0 .888672-.396199.888672-.888672v-.5c0 .492473-.396201.888672-.888672.888672h-11.55664012c-.49246999 0-.88867188-.396199-.88867188-.888672z" fill="#1f110e" opacity=".2"/></g></g></svg>

<?xml version="1.0" encoding="UTF-8" standalone="no"?>
<!-- Created with Inkscape (http://www.inkscape.org/) -->

<svg
   xmlns:dc="http://purl.org/dc/elements/1.1/"
   xmlns:cc="http://creativecommons.org/ns#"
   xmlns:rdf="http://www.w3.org/1999/02/22-rdf-syntax-ns#"
   xmlns:svg="http://www.w3.org/2000/svg"
   xmlns="http://www.w3.org/2000/svg"
   xmlns:sodipodi="http://sodipodi.sourceforge.net/DTD/sodipodi-0.dtd"
   xmlns:inkscape="http://www.inkscape.org/namespaces/inkscape"
   width="16"
   version="1.1"
   height="16"
   viewBox="0 0 4.2333332 4.2333335"
   id="svg12"
   sodipodi:docname="drink-beer.svg"
   inkscape:version="0.92.4 (5da689c313, 2019-01-14)">
  <sodipodi:namedview
     pagecolor="#ffffff"
     bordercolor="#666666"
     borderopacity="1"
     objecttolerance="10"
     gridtolerance="10"
     guidetolerance="10"
     inkscape:pageopacity="0"
     inkscape:pageshadow="2"
     inkscape:window-width="1920"
     inkscape:window-height="1016"
     id="namedview14"
     showgrid="false"
     inkscape:zoom="52.437418"
     inkscape:cx="7.9999999"
     inkscape:cy="8.0000252"
     inkscape:window-x="0"
     inkscape:window-y="27"
     inkscape:window-maximized="1"
     inkscape:current-layer="layer1" />
  <defs
     id="defs4" />
  <metadata
     id="metadata7">
    <rdf:RDF>
      <cc:Work
         rdf:about="">
        <dc:format>image/svg+xml</dc:format>
        <dc:type
           rdf:resource="http://purl.org/dc/dcmitype/StillImage" />
        <dc:title></dc:title>
      </cc:Work>
    </rdf:RDF>
  </metadata>
  <g
     inkscape:label="Capa 1"
     inkscape:groupmode="layer"
     id="layer1"
     transform="translate(0,-292.76666)">
    <path
       style="fill:#9c2c07;stroke-width:0.23518519;fill-opacity:1"
       id="rect4156"
       d="M 0.23518519,292.76665 C 0.10488584,292.76665 0,292.87154 0,293.00184 v 3.76296 c 0,0.1303 0.10488584,0.23519 0.23518519,0.23519 H 3.2925926 c 0.1302994,0 0.2351852,-0.10489 0.2351852,-0.23519 v -1.17592 h 0.4703703 c 0.1302992,0 0.2351852,-0.10489 0.2351852,-0.23519 v -1.88148 c 0,-0.1303 -0.104886,-0.23519 -0.2351852,-0.23519 H 3.5277778 v -0.23518 c 0,-0.1303 -0.1048858,-0.23519 -0.2351852,-0.23519 z m 3.29259261,0.70556 H 3.762963 c 0.1302991,0 0.2351851,0.10489 0.2351851,0.23518 v 1.41112 c 0,0.13029 -0.104886,0.23518 -0.2351851,0.23518 H 3.5277778 Z"
       inkscape:connector-curvature="0" />
    <rect
       width="3.0574071"
       x="0.23518516"
       y="293.00183"
       rx="0.23519732"
       height="3.7629635"
       style="fill:#eab305;stroke-width:0.8888889;fill-opacity:1"
       id="rect4179" />
    <path
       style="fill:#ffffff;fill-opacity:0.78431396;stroke-width:0.23518519"
       id="rect4201"
       d="m 0.47037037,293.00184 c -0.13029911,0 -0.23518518,0.10488 -0.23518518,0.23518 v 0.47037 H 1.8814815 v 0.1176 c 0,0.0651 0.052446,0.11759 0.1175926,0.11759 0.065146,0 0.1175926,-0.0524 0.1175926,-0.11759 v 0.23518 c 0,0.0652 0.052446,0.11759 0.1175925,0.11759 0.065146,0 0.1175926,-0.0524 0.1175926,-0.11759 v -0.35278 c 0,0.1303 0.1048926,0.23519 0.2351852,0.23519 0.1302926,0 0.2351852,-0.10489 0.2351852,-0.23519 h 0.4703704 v -0.47037 c 0,-0.1303 -0.104886,-0.23518 -0.2351852,-0.23518 H 2.587037 1.9990741 Z"
       inkscape:connector-curvature="0" />
    <path
       style="fill:#fdc92b;fill-opacity:1;stroke-width:0.23518519"
       id="rect4222"
       d="m 0.47037037,293.70739 v 3.05741 H 1.1759259 v -3.05741 z"
       inkscape:connector-curvature="0" />
    <rect
       width="0.23518488"
       x="1.1759264"
       y="294.1778"
       rx="0.11759289"
       height="1.8814818"
       style="fill:#422016;stroke-width:0.8888889"
       id="rect4283" />
    <rect
       width="0.23518488"
       x="2.116667"
       y="294.1778"
       rx="0.11759289"
       height="1.8814818"
       style="fill:#422016;stroke-width:0.8888889"
       id="rect4285" />
    <path
       style="fill:#ffffff;fill-opacity:0.78431396;stroke-width:0.23518519"
       id="path4289"
       d="m 0.47037037,293.00184 c -0.13029911,0 -0.23518518,0.10488 -0.23518518,0.23518 H 3.2925926 c 0,-0.1303 -0.104886,-0.23518 -0.2351852,-0.23518 z"
       inkscape:connector-curvature="0" />
    <path
       style="fill:#ffffff;fill-opacity:1;stroke-width:0.8888889;opacity:0.3"
       d="M 0.88867188 0 C 0.39620189 0 -1.4802974e-16 0.39619944 0 0.88867188 L 0 1.3886719 C -1.4802974e-16 0.89619944 0.39620189 0.5 0.88867188 0.5 L 12.445312 0.5 C 12.937783 0.5 13.333984 0.89619944 13.333984 1.3886719 L 13.333984 0.88867188 C 13.333984 0.39619944 12.937783 0 12.445312 0 L 0.88867188 0 z M 13.333984 1.7773438 L 13.333984 2.2773438 L 15.111328 2.2773438 C 15.603798 2.2773438 16 2.6735432 16 3.1660156 L 16 2.6660156 C 16 2.1735432 15.603798 1.7773438 15.111328 1.7773438 L 13.333984 1.7773438 z M 15.111328 8.8886719 C 15.111328 9.3811065 14.715125 9.7773438 14.222656 9.7773438 L 13.333984 9.7773438 L 13.333984 10.277344 L 14.222656 10.277344 C 14.715125 10.277344 15.111328 9.8811065 15.111328 9.3886719 L 15.111328 8.8886719 z "
       transform="matrix(0.26458333,0,0,0.26458333,0,292.76666)"
       id="path867" />
    <path
       style="fill:#1f110e;fill-opacity:1;stroke-width:0.8888889;opacity:0.2"
       d="M 13.333984 2.1660156 L 13.333984 2.6660156 L 14.222656 2.6660156 C 14.715125 2.6660156 15.111328 3.0622529 15.111328 3.5546875 L 15.111328 3.0546875 C 15.111328 2.5622529 14.715125 2.1660156 14.222656 2.1660156 L 13.333984 2.1660156 z M 16 9.2773438 C 16 9.7698162 15.603798 10.166016 15.111328 10.166016 L 13.333984 10.166016 L 13.333984 10.666016 L 15.111328 10.666016 C 15.603798 10.666016 16 10.269816 16 9.7773438 L 16 9.2773438 z M 0 14.611328 L 0 15.111328 C 0 15.603801 0.39620189 16 0.88867188 16 L 12.445312 16 C 12.937783 16 13.333984 15.603801 13.333984 15.111328 L 13.333984 14.611328 C 13.333984 15.103801 12.937783 15.5 12.445312 15.5 L 0.88867188 15.5 C 0.39620189 15.5 0 15.103801 0 14.611328 z "
       transform="matrix(0.26458333,0,0,0.26458333,0,292.76666)"
       id="path872" />
  </g>
</svg>
